src/assets/img/navbar/icon/community.svg

<?xml version="1.0" encoding="UTF-8" standalone="no"?>
<svg
   height="18.000122"
   width="18"
   version="1.1"
   id="svg3377"
   sodipodi:docname="community.svg"
   inkscape:version="1.1 (c4e8f9ed74, 2021-05-24)"
   xmlns:inkscape="http://www.inkscape.org/namespaces/inkscape"
   xmlns:sodipodi="http://sodipodi.sourceforge.net/DTD/sodipodi-0.dtd"
   xmlns:xlink="http://www.w3.org/1999/xlink"
   xmlns="http://www.w3.org/2000/svg"
   xmlns:svg="http://www.w3.org/2000/svg">
  <sodipodi:namedview
     id="namedview3379"
     pagecolor="#505050"
     bordercolor="#eeeeee"
     borderopacity="1"
     inkscape:pageshadow="0"
     inkscape:pageopacity="0"
     inkscape:pagecheckerboard="0"
     showgrid="false"
     inkscape:zoom="42.810811"
     inkscape:cx="8.8295455"
     inkscape:cy="8.7594697"
     inkscape:current-layer="svg3377" />
  <g
     transform="translate(-1.45,1.6501216)"
     id="g3339">
    <use
       height="50"
       transform="matrix(0.36,0,0,0.36,1.45,-1.65)"
       width="50"
       xlink:href="#sprite0"
       id="use3331"
       x="0"
       y="0" />
    <use
       height="17.950001"
       transform="translate(10.8,-1.65)"
       width="8.6499996"
       xlink:href="#sprite1"
       id="use3333"
       x="0"
       y="0" />
    <use
       height="8.8000002"
       transform="translate(5.9,3.35)"
       width="9.5500002"
       xlink:href="#sprite2"
       id="use3335"
       x="0"
       y="0" />
    <use
       height="8.8000002"
       transform="translate(5.9,3.35)"
       width="9.5500002"
       xlink:href="#sprite3"
       id="use3337"
       x="0"
       y="0" />
  </g>
  <defs
     id="defs3375">
    <g
       id="sprite0"
       transform="translate(25,25)">
      <use
         height="50"
         transform="translate(-25,-25)"
         width="50"
         xlink:href="#shape0"
         id="use3341"
         x="0"
         y="0" />
    </g>
    <g
       id="shape0"
       transform="translate(25,25)">
      <path
         d="M 25,0 Q 25,10.3 17.7,17.65 10.35,25 0,25 -10.35,25 -17.65,17.65 -25,10.3 -25,0 q 0,-10.35 7.35,-17.7 7.3,-7.35 17.65,-7.3 10.35,-0.05 17.7,7.3 Q 25,-10.35 25,0"
         fill="#ffffff"
         fill-rule="evenodd"
         stroke="none"
         id="path3344" />
    </g>
    <g
       id="sprite1">
      <use
         height="17.950001"
         width="8.6499996"
         xlink:href="#shape1"
         id="use3347"
         x="0"
         y="0" />
    </g>
    <g
       id="shape1">
      <path
         d="m 0,0 q 3.6,0.15 6.15,2.75 2.5,2.6 2.5,6.25 0,3.65 -2.5,6.25 Q 3.6,17.85 0,17.95 V 0"
         fill="url(#gradient0)"
         fill-rule="evenodd"
         stroke="none"
         id="path3350" />
    </g>
    <linearGradient
       gradientTransform="matrix(0.0053,0,0,0.011,4.3,8.95)"
       gradientUnits="userSpaceOnUse"
       id="gradient0"
       spreadMethod="pad"
       x1="-819.20001"
       x2="819.20001">
      <stop
         offset="0.0"
         stop-color="#ff9966"
         id="stop3353" />
      <stop
         offset="1.0"
         stop-color="#ff9966"
         stop-opacity="0.0"
         id="stop3355" />
    </linearGradient>
    <g
       id="sprite2">
      <use
         height="8.8000002"
         width="9.5500002"
         xlink:href="#shape2"
         id="use3358"
         x="0"
         y="0" />
    </g>
    <g
       id="shape2">
      <path
         d="M 4.75,5.3 7.3,0 q 2.25,1.4 2.25,4 0,2 -1.4,3.4 Q 6.75,8.8 4.75,8.8 2.8,8.8 1.4,7.4 0,6 0,4 0,1.4 2.25,0 l 2.5,5.3"
         fill="#ff3300"
         fill-rule="evenodd"
         stroke="none"
         id="path3361" />
    </g>
    <g
       id="sprite3">
      <use
         height="8.8000002"
         width="9.5500002"
         xlink:href="#shape3"
         id="use3364"
         x="0"
         y="0" />
    </g>
    <g
       id="shape3">
      <path
         d="M 4.75,5.3 7.3,0 q 2.25,1.4 2.25,4 0,2 -1.4,3.4 Q 6.75,8.8 4.75,8.8 2.8,8.8 1.4,7.4 0,6 0,4 0,1.4 2.25,0 l 2.5,5.3"
         fill="url(#gradient1)"
         fill-rule="evenodd"
         stroke="none"
         id="path3367" />
    </g>
    <linearGradient
       gradientTransform="matrix(0.0058,0,0,0.0054,4.75,4.4)"
       gradientUnits="userSpaceOnUse"
       id="gradient1"
       spreadMethod="pad"
       x1="-819.20001"
       x2="819.20001">
      <stop
         offset="0.0"
         stop-color="#ff9966"
         id="stop3370" />
      <stop
         offset="1.0"
         stop-color="#ff9966"
         stop-opacity="0.0"
         id="stop3372" />
    </linearGradient>
  </defs>
</svg>

<?xml version="1.0" encoding="UTF-8" standalone="no"?>
<svg xmlns:xlink="http://www.w3.org/1999/xlink" height="18.5px" width="18.35px" xmlns="http://www.w3.org/2000/svg">
  <g transform="matrix(1.0, 0.0, 0.0, 1.0, -1.1, 2.15)">
    <use height="50.0" transform="matrix(0.36, 0.0, 0.0, 0.36, 1.45, -1.65)" width="50.0" xlink:href="#sprite0"/>
    <use height="17.95" transform="matrix(1.0, 0.0, 0.0, 1.0, 10.8, -1.65)" width="8.65" xlink:href="#sprite1"/>
    <use height="8.8" transform="matrix(1.0, 0.0, 0.0, 1.0, 5.9, 3.35)" width="9.55" xlink:href="#sprite2"/>
    <use height="8.8" transform="matrix(1.0, 0.0, 0.0, 1.0, 5.9, 3.35)" width="9.55" xlink:href="#sprite3"/>
  </g>
  <defs>
    <g id="sprite0" transform="matrix(1.0, 0.0, 0.0, 1.0, 25.0, 25.0)">
      <use height="50.0" transform="matrix(1.0, 0.0, 0.0, 1.0, -25.0, -25.0)" width="50.0" xlink:href="#shape0"/>
    </g>
    <g id="shape0" transform="matrix(1.0, 0.0, 0.0, 1.0, 25.0, 25.0)">
      <path d="M25.0 0.0 Q25.0 10.3 17.7 17.65 10.35 25.0 0.0 25.0 -10.35 25.0 -17.65 17.65 -25.0 10.3 -25.0 0.0 -25.0 -10.35 -17.65 -17.7 -10.35 -25.05 0.0 -25.0 10.35 -25.05 17.7 -17.7 25.0 -10.35 25.0 0.0" fill="#ffffff" fill-rule="evenodd" stroke="none"/>
    </g>
    <g id="sprite1" transform="matrix(1.0, 0.0, 0.0, 1.0, 0.0, 0.0)">
      <use height="17.95" transform="matrix(1.0, 0.0, 0.0, 1.0, 0.0, 0.0)" width="8.65" xlink:href="#shape1"/>
    </g>
    <g id="shape1" transform="matrix(1.0, 0.0, 0.0, 1.0, 0.0, 0.0)">
      <path d="M0.0 0.0 Q3.6 0.15 6.15 2.75 8.65 5.35 8.65 9.0 8.65 12.65 6.15 15.25 3.6 17.85 0.0 17.95 L0.0 0.0" fill="url(#gradient0)" fill-rule="evenodd" stroke="none"/>
    </g>
    <linearGradient gradientTransform="matrix(0.0053, 0.0, 0.0, 0.011, 4.3, 8.95)" gradientUnits="userSpaceOnUse" id="gradient0" spreadMethod="pad" x1="-819.2" x2="819.2">
      <stop offset="0.0" stop-color="#ff9966"/>
      <stop offset="1.0" stop-color="#ff9966" stop-opacity="0.0"/>
    </linearGradient>
    <g id="sprite2" transform="matrix(1.0, 0.0, 0.0, 1.0, 0.0, 0.0)">
      <use height="8.8" transform="matrix(1.0, 0.0, 0.0, 1.0, 0.0, 0.0)" width="9.55" xlink:href="#shape2"/>
    </g>
    <g id="shape2" transform="matrix(1.0, 0.0, 0.0, 1.0, 0.0, 0.0)">
      <path d="M4.75 5.3 L7.3 0.0 Q9.55 1.4 9.55 4.0 9.55 6.0 8.15 7.4 6.75 8.8 4.75 8.8 2.8 8.8 1.4 7.4 0.0 6.0 0.0 4.0 0.0 1.4 2.25 0.0 L4.75 5.3" fill="#ff3300" fill-rule="evenodd" stroke="none"/>
    </g>
    <g id="sprite3" transform="matrix(1.0, 0.0, 0.0, 1.0, 0.0, 0.0)">
      <use height="8.8" transform="matrix(1.0, 0.0, 0.0, 1.0, 0.0, 0.0)" width="9.55" xlink:href="#shape3"/>
    </g>
    <g id="shape3" transform="matrix(1.0, 0.0, 0.0, 1.0, 0.0, 0.0)">
      <path d="M4.75 5.3 L7.3 0.0 Q9.55 1.4 9.55 4.0 9.55 6.0 8.15 7.4 6.75 8.8 4.75 8.8 2.8 8.8 1.4 7.4 0.0 6.0 0.0 4.0 0.0 1.4 2.25 0.0 L4.75 5.3" fill="url(#gradient1)" fill-rule="evenodd" stroke="none"/>
    </g>
    <linearGradient gradientTransform="matrix(0.0058, 0.0, 0.0, 0.0054, 4.75, 4.4)" gradientUnits="userSpaceOnUse" id="gradient1" spreadMethod="pad" x1="-819.2" x2="819.2">
      <stop offset="0.0" stop-color="#ff9966"/>
      <stop offset="1.0" stop-color="#ff9966" stop-opacity="0.0"/>
    </linearGradient>
  </defs>
</svg>
